src/assets/customizedAPIsIcon.svg

<svg width="56" height="56" viewBox="0 0 56 56" fill="none" xmlns="http://www.w3.org/2000/svg">
<path opacity="0.3" d="M50 50V18L6 50H50Z" fill="#FF2B2B"/>
<path d="M48.95 18.3998C48.95 17.6026 49.6028 16.9498 50.4 16.9498C51.1972 16.9498 51.85 17.6026 51.85 18.3998V47.1998C51.85 49.757 49.7572 51.8498 47.2 51.8498H8.8C6.24284 51.8498 4.15 49.757 4.15 47.1998V18.3998C4.15 17.6026 4.80284 16.9498 5.6 16.9498C6.39716 16.9498 7.05 17.6026 7.05 18.3998V47.1998C7.05 48.1626 7.83716 48.9498 8.8 48.9498H47.2C48.1628 48.9498 48.95 48.1626 48.95 47.1998V18.3998Z" fill="#B30000" stroke="#F6FAFF" stroke-width="0.3"/>
<path d="M13.6016 46.4002H42.4016C44.6096 46.4002 46.4016 44.6082 46.4016 42.4002V41.6002C46.4016 39.3922 44.6096 37.6002 42.4016 37.6002H13.6016C11.3936 37.6002 9.60156 39.3922 9.60156 41.6002V42.4002C9.60156 44.6082 11.3936 46.4002 13.6016 46.4002ZM12.8016 41.6002C12.8016 41.1522 13.1536 40.8002 13.6016 40.8002H42.4016C42.8496 40.8002 43.2016 41.1522 43.2016 41.6002V42.4002C43.2016 42.8482 42.8496 43.2002 42.4016 43.2002H13.6016C13.1536 43.2002 12.8016 42.8482 12.8016 42.4002V41.6002ZM12.4016 35.2002C13.2816 35.2002 14.0016 34.4802 14.0016 33.6002V28.8002H17.2016V33.6002C17.2016 34.4802 17.9216 35.2002 18.8016 35.2002C19.6816 35.2002 20.4016 34.4802 20.4016 33.6002V23.2002C20.4016 20.9922 18.6096 19.2002 16.4016 19.2002H14.8016C12.5936 19.2002 10.8016 20.9922 10.8016 23.2002V33.6002C10.8016 34.4802 11.5216 35.2002 12.4016 35.2002ZM14.0016 23.2002C14.0016 22.7522 14.3536 22.4002 14.8016 22.4002H16.4016C16.8496 22.4002 17.2016 22.7522 17.2016 23.2002V25.6002H14.0016V23.2002ZM26.8016 35.2002C27.6816 35.2002 28.4016 34.4802 28.4016 33.6002V28.8002H30.8016C33.0096 28.8002 34.8016 27.0082 34.8016 24.8002V23.2002C34.8016 20.9922 33.0096 19.2002 30.8016 19.2002H26.8016C25.9216 19.2002 25.2016 19.9202 25.2016 20.8002V33.6002C25.2016 34.4802 25.9216 35.2002 26.8016 35.2002ZM28.4016 22.4002H30.8016C31.2496 22.4002 31.6016 22.7522 31.6016 23.2002V24.8002C31.6016 25.2482 31.2496 25.6002 30.8016 25.6002H28.4016V22.4002ZM38.8016 32.0002C37.9216 32.0002 37.2016 32.7202 37.2016 33.6002C37.2016 34.4802 37.9216 35.2002 38.8016 35.2002H43.6016C44.4816 35.2002 45.2016 34.4802 45.2016 33.6002C45.2016 32.7202 44.4816 32.0002 43.6016 32.0002H42.8016V22.4002H43.6016C44.4816 22.4002 45.2016 21.6802 45.2016 20.8002C45.2016 19.9202 44.4816 19.2002 43.6016 19.2002H38.8016C37.9216 19.2002 37.2016 19.9202 37.2016 20.8002C37.2016 21.6802 37.9216 22.4002 38.8016 22.4002H39.6016V32.0002H38.8016Z" fill="#B30000"/>
<path d="M8.8 4.15H47.2C49.7572 4.15 51.85 6.24284 51.85 8.8V13.45H4.15V8.8C4.15 6.24284 6.24284 4.15 8.8 4.15ZM10.4 10.55H11.2C12.1628 10.55 12.95 9.76284 12.95 8.8C12.95 7.83716 12.1628 7.05 11.2 7.05H10.4C9.43716 7.05 8.65 7.83716 8.65 8.8C8.65 9.76284 9.43716 10.55 10.4 10.55ZM16.8 10.55H17.6C18.5628 10.55 19.35 9.76284 19.35 8.8C19.35 7.83716 18.5628 7.05 17.6 7.05H16.8C15.8372 7.05 15.05 7.83716 15.05 8.8C15.05 9.76284 15.8372 10.55 16.8 10.55ZM23.2 10.55H24C24.9628 10.55 25.75 9.76284 25.75 8.8C25.75 7.83716 24.9628 7.05 24 7.05H23.2C22.2372 7.05 21.45 7.83716 21.45 8.8C21.45 9.76284 22.2372 10.55 23.2 10.55Z" fill="#B30000" stroke="#F6FAFF" stroke-width="0.3"/>
</svg>

<svg width="56" height="56" viewBox="0 0 56 56" fill="none" xmlns="http://www.w3.org/2000/svg">
    <path opacity=".3" d="M50 50V18L6 50h44z" fill="red"/>
    <path d="M48.95 18.4c0-.797.653-1.45 1.45-1.45.797 0 1.45.653 1.45 1.45v28.8a4.664 4.664 0 0 1-4.65 4.65H8.8a4.664 4.664 0 0 1-4.65-4.65V18.4c0-.797.653-1.45 1.45-1.45.797 0 1.45.653 1.45 1.45v28.8c0 .963.787 1.75 1.75 1.75h38.4c.963 0 1.75-.787 1.75-1.75V18.4z" fill="#004498" stroke="#F6FAFF" stroke-width=".3"/>
    <path d="M13.602 46.4h28.8c2.208 0 4-1.792 4-4v-.8c0-2.208-1.792-4-4-4h-28.8c-2.208 0-4 1.792-4 4v.8c0 2.208 1.792 4 4 4zm-.8-4.8c0-.448.352-.8.8-.8h28.8c.448 0 .8.352.8.8v.8c0 .448-.352.8-.8.8h-28.8a.792.792 0 0 1-.8-.8v-.8zm-.4-6.4c.88 0 1.6-.72 1.6-1.6v-4.8h3.2v4.8c0 .88.72 1.6 1.6 1.6.88 0 1.6-.72 1.6-1.6V23.2c0-2.208-1.792-4-4-4h-1.6c-2.208 0-4 1.792-4 4v10.4c0 .88.72 1.6 1.6 1.6zm1.6-12c0-.448.352-.8.8-.8h1.6c.448 0 .8.352.8.8v2.4h-3.2v-2.4zm12.8 12c.88 0 1.6-.72 1.6-1.6v-4.8h2.4c2.208 0 4-1.792 4-4v-1.6c0-2.208-1.792-4-4-4h-4c-.88 0-1.6.72-1.6 1.6v12.8c0 .88.72 1.6 1.6 1.6zm1.6-12.8h2.4c.448 0 .8.352.8.8v1.6c0 .448-.352.8-.8.8h-2.4v-3.2zm10.4 9.6c-.88 0-1.6.72-1.6 1.6 0 .88.72 1.6 1.6 1.6h4.8c.88 0 1.6-.72 1.6-1.6 0-.88-.72-1.6-1.6-1.6h-.8v-9.6h.8c.88 0 1.6-.72 1.6-1.6 0-.88-.72-1.6-1.6-1.6h-4.8c-.88 0-1.6.72-1.6 1.6 0 .88.72 1.6 1.6 1.6h.8V32h-.8z" fill="#004498"/>
    <path d="M8.8 4.15h38.4a4.664 4.664 0 0 1 4.65 4.65v4.65H4.15V8.8A4.664 4.664 0 0 1 8.8 4.15zm1.6 6.4h.8c.963 0 1.75-.787 1.75-1.75s-.787-1.75-1.75-1.75h-.8c-.963 0-1.75.787-1.75 1.75s.787 1.75 1.75 1.75zm6.4 0h.8c.963 0 1.75-.787 1.75-1.75s-.787-1.75-1.75-1.75h-.8c-.963 0-1.75.787-1.75 1.75s.787 1.75 1.75 1.75zm6.4 0h.8c.963 0 1.75-.787 1.75-1.75S24.963 7.05 24 7.05h-.8c-.963 0-1.75.787-1.75 1.75s.787 1.75 1.75 1.75z" fill="#004498" stroke="#F6FAFF" stroke-width=".3"/>
</svg>
